X:8
T:Caitlin Tr\'iall
T:Kitty Tyrrell
R:slow air
Z:id:hn-slowair-8
M:3/4
L:1/8
Q:1/4=70
K:G
GE | D3 E G2 | G A3 GA | B g3 f2 | e g3 f2 |
edcBAG | G2 A2 B2 |1 c3 BAG | E4 :|2 A4 G2 | G4 ||
d2 | g2 f2 g2 | e4 (3efg | a2 ag fe | d4 (3def |
g3 fed | B4 cB | A3 BAG | E4 GE |
D3 E G2 | G A3 GA | B2 g3 f | e g3 e2 |
d3 B G2 | G3 A B2 | A4 G2 | G4 ||

